assets/icons/icon_change_password_ldpi.svg

<svg width="24" height="24" viewBox="0 0 24 24" fill="none"
    xmlns="http://www.w3.org/2000/svg">
    <path d="M12 2.4C12.1284 2.4 12.2568 2.4048 12.384 2.4156C11.523 3.02488 10.8208 3.83188 10.3364 4.76881C9.85195 5.70574 9.59942 6.74524 9.60002 7.8C9.60002 9.3804 10.1556 10.8312 11.082 11.9676L10.2 12.8484V14.88C10.2 15.071 10.1242 15.2541 9.98914 15.3891C9.85412 15.5241 9.67098 15.6 9.48002 15.6H7.20002V17.28C7.20002 17.471 7.12417 17.6541 6.98914 17.7891C6.85412 17.9241 6.67098 18 6.48002 18H3.12002C2.92907 18 2.74593 17.9241 2.61091 17.7891C2.47588 17.6541 2.40002 17.471 2.40002 17.28V13.8492C2.40019 13.6583 2.47616 13.4753 2.61122 13.3404L7.39442 8.5572C7.18336 7.8412 7.1422 7.08584 7.27421 6.35114C7.40622 5.61644 7.70776 4.92266 8.15487 4.32492C8.60198 3.72718 9.18235 3.24195 9.84984 2.9078C10.5173 2.57364 11.2536 2.39977 12 2.4Z" fill="#6366F1"/>
    <path d="M10.8 7.8C10.8001 6.8671 11.0419 5.95012 11.5018 5.13844C11.9616 4.32676 12.624 3.64807 13.4242 3.16851C14.2244 2.68895 15.1352 2.42488 16.0678 2.40203C17.0004 2.37919 17.9231 2.59835 18.7458 3.03816C19.5685 3.47797 20.2633 4.12342 20.7624 4.91161C21.2614 5.6998 21.5478 6.60384 21.5936 7.53562C21.6393 8.46741 21.4429 9.39515 21.0234 10.2284C20.6039 11.0617 19.9757 11.7721 19.2 12.2904V14.7504L20.1397 15.6912C20.2745 15.8262 20.3502 16.0092 20.3502 16.2C20.3502 16.3908 20.2745 16.5738 20.1397 16.7088L18.8484 18L20.13 19.2804C20.2017 19.3521 20.2573 19.438 20.2935 19.5326C20.3296 19.6273 20.3453 19.7285 20.3397 19.8296C20.334 19.9308 20.3071 20.0296 20.2606 20.1196C20.2141 20.2096 20.1492 20.2888 20.0701 20.352L17.25 22.608C17.1223 22.7102 16.9636 22.766 16.8 22.766C16.6365 22.766 16.4778 22.7102 16.35 22.608L13.4701 20.304C13.3859 20.2366 13.3179 20.1511 13.2711 20.0539C13.2244 19.9567 13.2001 19.8503 13.2 19.7424V12.2904C12.4613 11.7973 11.8557 11.1295 11.437 10.3461C11.0184 9.56279 10.7996 8.6882 10.8 7.8ZM17.1 6.6C17.1 6.36131 17.0052 6.13239 16.8364 5.96361C16.6677 5.79482 16.4387 5.7 16.2 5.7C15.9614 5.7 15.7324 5.79482 15.5637 5.96361C15.3949 6.13239 15.3 6.36131 15.3 6.6C15.3 6.8387 15.3949 7.06762 15.5637 7.2364C15.7324 7.40518 15.9614 7.5 16.2 7.5C16.4387 7.5 16.6677 7.40518 16.8364 7.2364C17.0052 7.06762 17.1 6.8387 17.1 6.6Z" fill="#3730A3"/>
</svg>

<svg fill="none" xmlns="http://www.w3.org/2000/svg" viewBox="0 0 24 24"><path d="M12 2.4q.2 0 .38.02a6.6 6.6 0 0 0-1.3 9.55l-.88.88v2.03a.7.7 0 0 1-.72.72H7.2v1.68a.7.7 0 0 1-.72.72H3.12a.7.7 0 0 1-.72-.72v-3.43q0-.3.21-.51L7.4 8.56A4.8 4.8 0 0 1 12 2.4" fill="#6366F1"/><path d="M10.8 7.8a5.4 5.4 0 1 1 8.4 4.49v2.46l.94.94a.7.7 0 0 1 0 1.02L18.84 18l1.29 1.28a.72.72 0 0 1-.06 1.07l-2.82 2.26a.7.7 0 0 1-.9 0l-2.88-2.3a.7.7 0 0 1-.27-.57V12.3a5.4 5.4 0 0 1-2.4-4.49m6.3-1.2a.9.9 0 1 0-1.8 0 .9.9 0 0 0 1.8 0" fill="#3730A3"/></svg>
